X: 17125
T: Heilan' Donald Kissed Kitty
R: strathspey
M: 4/4
K: Gmajor
c/|B<G G>B c>A B<g|B<G G>A B<d A>c|B<G G>A c>A B<d|egdg Bg [F3/2A3/2]c/|
B>G G/G/G c>A B<g|B>G G/G/G (B<d) A>c|B>G G/G/G c>A B>G|E/G/G D/G/G B,/G/G A,3/2||
|:c/|Bd- d.e/.f/ {f/}g>d e<d|Bd- d.e/.f/ gB [F2A2]|Bd- d.e/.f/ gf{f/}ed|e<g d<g B<g [F3/2A3/2]:|

